resources/haticons/SVG/tap_and_play.svg

<!-- Generated by IcoMoon.io -->
<svg version="1.1" xmlns="http://www.w3.org/2000/svg" width="24" height="24" viewBox="0 0 24 24">
<title>tap_and_play</title>
<path d="M17.016 1.031q0.797 0 1.383 0.586t0.586 1.383v17.016q0 0.797-0.586 1.383t-1.383 0.586h-2.109q-0.141-2.016-0.938-3.984h3.047v-12.984h-10.031v6q-1.172-0.516-1.969-0.656v-7.359q0-0.797 0.586-1.406t1.383-0.609zM2.016 12q4.547 0 7.758 3.211t3.211 7.805h-1.969q0-3.703-2.648-6.352t-6.352-2.648v-2.016zM2.016 20.016q1.219 0 2.109 0.891t0.891 2.109h-3v-3zM2.016 15.984q2.906 0 4.945 2.063t2.039 4.969h-2.016q0-2.063-1.453-3.539t-3.516-1.477v-2.016z"></path>
</svg>

<svg xmlns="http://www.w3.org/2000/svg" width="24" height="24"><path d="M17.016 1.031q.797 0 1.383.586T18.985 3v17.016q0 .797-.586 1.383t-1.383.586h-2.109q-.141-2.016-.938-3.984h3.047V5.017H6.985v6q-1.172-.516-1.969-.656V3.002q0-.797.586-1.406T6.985.987zM2.016 12q4.547 0 7.758 3.211t3.211 7.805h-1.969q0-3.703-2.648-6.352t-6.352-2.648V12zm0 8.016q1.219 0 2.109.891t.891 2.109h-3v-3zm0-4.032q2.906 0 4.945 2.063T9 23.016H6.984q0-2.063-1.453-3.539T2.015 18v-2.016z"/></svg>
